X:1
T:Magnificat
T:Magnificat
T:John Farmer
T:Source : The Whole Book of Psalms---London---th.Est(e)---1592. Editor : André Vierendeels (25/08/16).
T:Notes : Original clefs C1, C3, C4, F4 Editorial accidenstals above the staff Original note values have been halved except m 8, 13 and 18 
T:©
T:©
T:©
C:John Farmer
Z:©
%%score [ 1 [ 2 3 ] 4 ]
L:1/8
Q:1/4=97
M:2/2
K:F
V:1 treble nm="Soprano" snm="S"
V:2 treble-8 nm="Tenor 1" snm="T 1"
V:3 treble-8 nm="Tenor 2" snm="T 2"
V:4 bass nm="Bass" snm="B"
V:1
 ^F4 G2 A2 | B4 A4 | G2 G2 ^F4 || G2 d4 c2 | c2 =B2 c4 | c4 c2 d2 | c2 B2 G2 G2 | ^F8 || %8
w: My soule doth|ma- gni-|fie the Lord,|my sprite eke|e- ven- more,|re- joy- eth|in the Lord my|God,|
"^-natural" A4 c2 F2 | G2 A2 B4 | G2 F4 G2 | A2 B2 B2 A2 | B8 || z2 G2 B2 A2 | G3 G ^F4 || %15
w: which is my|Sa- vi- our.|And why be-|cause hee did re-|gard,|and gave re-|spect un- to,|
 G4 A2 B2 | A2 G2 G2 B2 | G8 || B2 A4 G2 | G2 ^F2 !fermata!G4 |] %20
w: so base e-|state oh his hand|mayd,|and let the|migh- tie goe.|
V:2
 d4 d2 f2 | f4 f4 | d2 d2 d4 || _e2 d4 g2 | g3 f e4 | f4 e2 f2 | f2 f2 _e2 d2 | d8 || f4 _e2 c2 | %9
w: My soule doth|ma- gni-|fie the Lord,|my sprite eke|e- ven- more,|re- joy- eth|in the Lord my|God,|which is my|
 _e3 e d4 | B2 B4 G2 | d2 B2 _eg f2 | d8 || d4 d2 d2 | G2 G2 A4 || d4 d2 d2 | f2 d2 _e2 f2 | _e8 || %18
w: Sa- vi- our.|And wy be-|cause hee did _ re-|gard,|and gave re-|spect un- to,|so base e-|state of his hand|mayd,|
 g2 f4 d2 | d3 c !fermata!=B4 |] %20
w: and let the|migh- tie goe.|
V:3
 A4 B2 c2 | d4 c4 | B2 B2 A4 || c2 f4 _e2 | d2 d2 c4 | A4 c2 B2 | A2 d2 c2 B2 | A8 || F4 G2 A2 | %9
w: My soule doth|ma- gni-|fie the Lord,|my sprite eke|e- ven- more,|re- joy- eth|in the Lord my|God.|which is my|
 B2 c2 F4 | G2 d4 B2 | f2 d2 c2 c2 | B8 || B4 G2 A2 | B2 c2 d4 || B4 F2 G2 | A2 B2 G2 d2 | B8 || %18
w: Sa- vi- our.|And wy be-|cause hee did re-|gard,|and gave re-|spect un- to,|so base e-|state of his hand|mayd,|
 G2 c4 B2 | A2 A2 !fermata!G4 |] %20
w: and let the|migh- tie goe.|
V:4
 D,4 G,2 F,2 | B,4 F,4 | G,2 G,,2 D,4 || C,2 B,,4 C,2 | G,2 G,,2 C,4 | F,4 A,2 D,2 | %6
w: My soule doth|ma- gni-|fie the Lord,|my sprite eke|e- ven- more,|re- joy- eth|
 F,2 B,,2 C,2 G,,2 | D,8 || D,4 C,2 F,2 | _E,2 C,2 B,,4 | _E,2 B,,4 E,2 | D,2 G,2 _E,2 F,2 | %12
w: in the Lord my|God,|which is my|Sa- vi- our.|And wy be-|cause hee did re-|
 B,,8 || G,,2 G,4 F,2 | _E,3 E, D,4 || G,4 D,2 G,,2 | D,2 G,,2 C,2 B,,2 | _E,8 || _E,2 F,4 G,2 | %19
w: gard,|and gave re-|spect un- to,|so base e-|state of his hand|mayd,|and let the|
 D,2 D,2 !fermata!G,,4 |] %20
w: migh- tie goe.|

